X: 8751
T: Cuban, The
R: polka
M: 2/4
K: Dmajor
|:AG/A/ BA|A/B/c/A/ d2|E>F G/F/E/D/|E>F G/F/E/D/|
AG/A/ BA|A/B/c/A/ d2|E>F GE|1 D2 D2:|2 D2 d>c||
K: Gmaj
|:BG/A/ BG/A/|BG/B/ c>B|AF/G/ AB/A/|G/A/B/c/ d>c|
BG/A/ BG/A/|BG/B/ c>B|A/B/A/G/ F/D/E/F/|1 GB d>c:|2 GB G2||

